Ministry.BlogPage/wwwroot/dist/img/about_agency/fast.svg

<svg width="70" height="53" viewBox="0 0 70 53" fill="none" xmlns="http://www.w3.org/2000/svg">
<path d="M5.31445 11.7142H16.1286C16.6949 11.7142 17.154 11.2553 17.154 10.6888C17.154 10.1224 16.6949 9.66345 16.1286 9.66345H5.31445C4.74816 9.66345 4.28906 10.1224 4.28906 10.6888C4.28906 11.2553 4.74803 11.7142 5.31445 11.7142Z" fill="white"/>
<path d="M15.7577 16.6508H11.4858C10.9195 16.6508 10.4604 17.1097 10.4604 17.6761C10.4604 18.2426 10.9195 18.7015 11.4858 18.7015H15.7577C16.324 18.7015 16.7831 18.2426 16.7831 17.6761C16.7831 17.1097 16.324 16.6508 15.7577 16.6508Z" fill="white"/>
<path d="M1.02539 23.7615H11.486C12.0523 23.7615 12.5114 23.3025 12.5114 22.7361C12.5114 22.1697 12.0523 21.7107 11.486 21.7107H1.02539C0.4591 21.7107 0 22.1697 0 22.7361C0 23.3025 0.4591 23.7615 1.02539 23.7615Z" fill="white"/>
<path d="M17.154 41.9397C17.154 41.3733 16.6949 40.9143 16.1286 40.9143H5.31445C4.74816 40.9143 4.28906 41.3733 4.28906 41.9397C4.28906 42.5061 4.74816 42.9651 5.31445 42.9651H16.1286C16.6949 42.9651 17.154 42.5061 17.154 41.9397Z" fill="white"/>
<path d="M15.7577 33.9272H11.4858C10.9195 33.9272 10.4604 34.3862 10.4604 34.9526C10.4604 35.5191 10.9195 35.978 11.4858 35.978H15.7577C16.324 35.978 16.7831 35.5191 16.7831 34.9526C16.7831 34.3862 16.324 33.9272 15.7577 33.9272Z" fill="white"/>
<path d="M12.5114 29.8926C12.5114 29.3262 12.0523 28.8672 11.486 28.8672H1.02539C0.4591 28.8672 0 29.3262 0 29.8926C0 30.459 0.4591 30.918 1.02539 30.918H11.486C12.0523 30.918 12.5114 30.459 12.5114 29.8926Z" fill="white"/>
<path d="M43.6855 13.9864C44.252 13.9864 44.7109 13.5274 44.7109 12.961V11.3959C44.7109 10.8294 44.252 10.3705 43.6855 10.3705C43.1191 10.3705 42.6602 10.8294 42.6602 11.3959V12.961C42.6602 13.5274 43.1191 13.9864 43.6855 13.9864Z" fill="white"/>
<path d="M54.959 15.0403C54.5585 14.64 53.9093 14.64 53.5089 15.0403L52.4021 16.1471C52.0017 16.5477 52.0017 17.1968 52.4021 17.5972C52.8029 17.9977 53.4519 17.9976 53.8523 17.5972L54.959 16.4905C55.3594 16.0901 55.3594 15.4409 54.959 15.0403Z" fill="white"/>
<path d="M57.0388 25.2889C56.4724 25.2889 56.0134 25.7479 56.0134 26.3143C56.0134 26.8808 56.4724 27.3397 57.0388 27.3397H58.6038C59.1703 27.3397 59.6292 26.8808 59.6292 26.3143C59.6292 25.7479 59.1703 25.2889 58.6038 25.2889H57.0388Z" fill="white"/>
<path d="M53.8523 35.0313C53.4517 34.631 52.8026 34.631 52.4021 35.0313C52.0017 35.4319 52.0017 36.081 52.4021 36.4815L53.5089 37.5882C53.9096 37.9887 54.5586 37.9885 54.9591 37.5882C55.3595 37.1876 55.3595 36.5385 54.9591 36.138L53.8523 35.0313Z" fill="white"/>
<path d="M42.6602 39.6676V41.2326C42.6602 41.799 43.1191 42.258 43.6855 42.258C44.252 42.258 44.7109 41.799 44.7109 41.2326V39.6676C44.7109 39.1012 44.252 38.6422 43.6855 38.6422C43.1191 38.6422 42.6602 39.1013 42.6602 39.6676Z" fill="white"/>
<path d="M33.5184 35.0313L32.4117 36.138C32.0112 36.5386 32.0112 37.1878 32.4117 37.5882C32.8122 37.9887 33.4614 37.9885 33.8617 37.5882L34.9684 36.4815C35.3689 36.0809 35.3689 35.4318 34.9684 35.0313C34.5681 34.631 33.9188 34.631 33.5184 35.0313Z" fill="white"/>
<path d="M28.7671 25.2889C28.2008 25.2889 27.7417 25.7479 27.7417 26.3143C27.7417 26.8808 28.2008 27.3397 28.7671 27.3397H30.3322C30.8985 27.3397 31.3576 26.8808 31.3576 26.3143C31.3576 25.7479 30.8985 25.2889 30.3322 25.2889H28.7671Z" fill="white"/>
<path d="M34.9684 16.1471L33.8617 15.0403C33.4612 14.64 32.812 14.64 32.4117 15.0403C32.0112 15.4409 32.0112 16.0901 32.4117 16.4905L33.5184 17.5972C33.919 17.9977 34.5681 17.9976 34.9684 17.5972C35.3689 17.1968 35.3689 16.5477 34.9684 16.1471Z" fill="white"/>
<path d="M49.1994 26.3143C49.1994 25.7479 48.7404 25.2889 48.174 25.2889H44.7109V17.6759C44.7109 17.1095 44.252 16.6505 43.6855 16.6505C43.1191 16.6505 42.6602 17.1095 42.6602 17.6759V26.3143C42.6602 26.8807 43.1191 27.3397 43.6855 27.3397H48.174C48.7403 27.3397 49.1994 26.8807 49.1994 26.3143Z" fill="white"/>
<path d="M63.1286 26.1451C63.6939 26.1108 64.1243 25.6248 64.09 25.0596C63.4377 14.2994 54.475 5.87061 43.6855 5.87061C32.4128 5.87061 23.2417 15.0417 23.2417 26.3145C23.2417 37.5872 32.4128 46.7583 43.6855 46.7583C53.7847 46.7583 62.4022 39.3588 63.9013 29.3736C63.9854 28.8136 63.5996 28.2915 63.0395 28.2074C62.4808 28.1236 61.9573 28.509 61.8733 29.0692C60.5266 38.0399 52.7807 44.7076 43.6855 44.7076C33.5436 44.7076 25.2925 36.4565 25.2925 26.3146C25.2925 16.1727 33.5436 7.92152 43.6855 7.92152C53.3926 7.92152 61.4561 15.5041 62.0429 25.184C62.0771 25.7489 62.5627 26.1779 63.1286 26.1451Z" fill="white"/>
<path d="M43.6856 0C40.0788 0 36.545 0.74826 33.2925 2.14757H15.2007C14.6344 2.14757 14.1753 2.60654 14.1753 3.17296C14.1753 3.73939 14.6344 4.19835 15.2007 4.19835H29.4348C27.5103 5.43702 25.7385 6.93108 24.1764 8.65592C23.7963 9.07551 23.8283 9.72396 24.248 10.1042C24.6679 10.4844 25.3161 10.4523 25.6964 10.0325C30.2904 4.96001 36.8473 2.05078 43.6856 2.05078C57.0645 2.05078 67.9492 12.9353 67.9492 26.3143C67.9492 39.6932 57.0647 50.5779 43.6856 50.5779C30.3066 50.5779 19.422 39.6933 19.422 26.3143C19.422 21.6293 20.7603 17.082 23.2921 13.1639C23.5994 12.6883 23.463 12.0536 22.9873 11.7463C22.5117 11.4391 21.877 11.5753 21.5696 12.051C18.8229 16.3013 17.3712 21.2335 17.3712 26.3143C17.3712 35.5792 22.1845 43.7402 29.4414 48.4303H15.2008C14.6345 48.4303 14.1754 48.8893 14.1754 49.4557C14.1754 50.0221 14.6345 50.4811 15.2008 50.4811H33.2784C36.4721 51.8618 39.9909 52.6287 43.6857 52.6287C58.1953 52.6287 70 40.8241 70 26.3143C70 11.8045 58.1953 0 43.6856 0Z" fill="white"/>
</svg>

<svg width="70" height="53" fill="none" xmlns="http://www.w3.org/2000/svg"><path d="M5.314 11.714H16.13a1.025 1.025 0 100-2.05H5.314a1.025 1.025 0 100 2.05zm10.444 4.936h-4.272a1.025 1.025 0 100 2.052h4.272a1.025 1.025 0 100-2.051zM1.025 23.762h10.461a1.025 1.025 0 100-2.051H1.026a1.025 1.025 0 100 2.05zM17.154 41.94c0-.567-.46-1.026-1.025-1.026H5.314a1.025 1.025 0 100 2.051H16.13c.566 0 1.025-.459 1.025-1.025zm-1.396-8.013h-4.272a1.025 1.025 0 100 2.051h4.272a1.025 1.025 0 100-2.05zm-3.247-4.034c0-.567-.459-1.026-1.025-1.026H1.026a1.025 1.025 0 100 2.051h10.46c.566 0 1.025-.459 1.025-1.025zm31.174-15.907c.567 0 1.026-.459 1.026-1.025v-1.565a1.025 1.025 0 10-2.05 0v1.565c0 .566.458 1.025 1.024 1.025zm11.274 1.054c-.4-.4-1.05-.4-1.45 0l-1.107 1.107a1.025 1.025 0 001.45 1.45l1.107-1.107c.4-.4.4-1.05 0-1.45zm2.08 10.249a1.025 1.025 0 100 2.05h1.565a1.025 1.025 0 100-2.05h-1.565zm-3.187 9.742a1.026 1.026 0 00-1.45 1.45l1.107 1.107a1.026 1.026 0 001.45-1.45l-1.107-1.107zM42.66 39.668v1.565a1.025 1.025 0 102.05 0v-1.565a1.025 1.025 0 10-2.05 0zm-9.142-4.637l-1.106 1.107a1.025 1.025 0 001.45 1.45l1.106-1.107a1.025 1.025 0 00-1.45-1.45zm-4.751-9.742a1.025 1.025 0 100 2.05h1.565a1.025 1.025 0 100-2.05h-1.565zm6.201-9.142l-1.106-1.107a1.025 1.025 0 00-1.45 1.45l1.106 1.107a1.025 1.025 0 101.45-1.45zM49.2 26.314c0-.566-.46-1.025-1.026-1.025h-3.463v-7.613a1.025 1.025 0 10-2.05 0v8.638c0 .567.458 1.026 1.024 1.026h4.489c.566 0 1.025-.46 1.025-1.026z" fill="#fff"/><path d="M63.129 26.145c.565-.034.995-.52.961-1.085-.652-10.76-9.615-19.19-20.405-19.19-11.272 0-20.443 9.172-20.443 20.444 0 11.273 9.17 20.444 20.443 20.444 10.1 0 18.717-7.4 20.216-17.384a1.025 1.025 0 10-2.028-.305c-1.346 8.97-9.092 15.639-18.188 15.639-10.141 0-18.393-8.252-18.393-18.393 0-10.142 8.252-18.393 18.393-18.393 9.708 0 17.771 7.582 18.358 17.262.034.565.52.994 1.086.961z" fill="#fff"/><path d="M43.686 0c-3.607 0-7.141.748-10.394 2.148H15.201a1.025 1.025 0 100 2.05h14.234a26.287 26.287 0 00-5.259 4.458 1.025 1.025 0 101.52 1.377 24.316 24.316 0 0117.99-7.982c13.379 0 24.263 10.884 24.263 24.263 0 13.38-10.884 24.264-24.263 24.264-13.38 0-24.264-10.885-24.264-24.264 0-4.685 1.338-9.232 3.87-13.15a1.025 1.025 0 10-1.722-1.113 26.219 26.219 0 00-4.199 14.263c0 9.265 4.814 17.426 12.07 22.116h-14.24a1.025 1.025 0 100 2.051h18.077a26.164 26.164 0 0010.408 2.148C58.196 52.629 70 40.824 70 26.314 70 11.804 58.195 0 43.686 0z" fill="#fff"/></svg>
